; generated by PrusaSlicer 2.7.1+win64 on 2024-02-17 at 20:02:23 UTC


;
;
; 

; external perimeters extrusion width = 0.65mm
; perimeters extrusion width = 0.65mm
; infill extrusion width = 0.65mm
; solid infill extrusion width = 0.65mm
; top infill extrusion width = 0.60mm
; first layer extrusion width = 0.65mm

M73 P0 R1
M73 Q0 S1
M201 X1000 Y1000 Z200 E5000 ; sets maximum accelerations, mm/sec^2
M203 X200 Y200 Z12 E120 ; sets maximum feedrates, mm / sec
M204 S1250 T1250 ; sets acceleration (S) and retract acceleration (R), mm/sec^2
M205 X8.00 Y8.00 Z0.40 E4.50 ; sets the jerk limits, mm/sec
M205 S0 T0 ; sets the minimum extruding and travel feed rate, mm/sec

; printing object Board id:0 copy 0
; stop printing object Board id:0 copy 0

;TYPE:Custom
M862.3 P "MK3S" ; printer model check
M862.1 P0.6 ; nozzle diameter check
M115 U3.13.2 ; tell printer latest fw version
G90 ; use absolute coordinates
M83 ; extruder relative mode
M104 S215 ; set extruder temp
M140 S60 ; set bed temp
M190 S60 ; wait for bed temp
M109 S215 ; wait for extruder temp
G28 W ; home all without mesh bed level
G80 X93.1002 Y73.1002 W63.7995 H63.7995 ; mesh bed levelling

G1 Z0.2 F720
G1 Y-3 F1000 ; go outside print area
G92 E0
G1 X60 E9 F1000 ; intro line
G1 X100 E12.5 F1000 ; intro line
M73 P4 R1
M73 Q4 S1

G92 E0
M221 S95
G21 ; set units to millimeters
G90 ; use absolute coordinates
M83 ; use relative distances for extrusion
M900 K0.04 ; Filament gcode LA 1.5
M900 K18 ; Filament gcode LA 1.0
M107
;LAYER_CHANGE
;Z:0.2
;HEIGHT:0.2
;BEFORE_LAYER_CHANGE
G92 E0.0
;0.2


G1 E-.8 F2100
M73 P6 R1
M73 Q6 S1
G1 Z.2 F720
;AFTER_LAYER_CHANGE
;0.2
; printing object Board id:0 copy 0
G1 X115.921 Y96.9 F10800
G1 Z.2 F720
M73 P7 R1
M73 Q7 S1
G1 E.8 F1500
M204 S800
;TYPE:Perimeter
;WIDTH:0.813455
G1 F1200
G1 X116.365 Y96.809 E.02904
;WIDTH:0.819705
G1 X116.625 Y96.625 E.02057
G1 X116.808 Y96.364 E.02059
;WIDTH:0.811068
G1 X116.9 Y96.007 E.02355
G1 X116.992 Y96.364 E.02355
;WIDTH:0.819705
G1 X117.174 Y96.625 E.02055
G1 X117.435 Y96.808 E.02059
;WIDTH:0.811068
G1 X117.793 Y96.9 E.02361
G1 X117.435 Y96.992 E.02361
;WIDTH:0.819705
G1 X117.174 Y97.174 E.02055
M73 Q8 S1
G1 X116.991 Y97.435 E.02059
;WIDTH:0.813455
G1 X116.9 Y97.878 E.02898
G1 X116.809 Y97.435 E.02898
;WIDTH:0.819705
G1 X116.625 Y97.174 E.02063
G1 X116.365 Y96.991 E.02054
;WIDTH:0.813455
G1 X116.009 Y96.918 E.02328
M204 S1000
;WIPE_START
G1 F8640
G1 X115.921 Y96.9 E-.02074
G1 X116.365 Y96.809 E-.10465
;WIPE_END
G1 E-.67461 F2100
G1 Z.6 F720
G1 X97.93 Y96.559 F10800
M73 P8 R1
G1 Z.2 F720
G1 E.8 F1500
M204 S800
;WIDTH:0.538482
G1 F1200
G1 X97.987 Y96.616 E.00332
G1 X98.226 Y96.657 E.00999
;WIDTH:0.582664
G1 X98.291 Y96.689 E.00325
;WIDTH:0.626846
G1 X98.357 Y96.72 E.00354
;WIDTH:0.671028
G1 X98.423 Y96.752 E.00383
;WIDTH:0.71521
G1 X98.488 Y96.783 E.00403
;WIDTH:0.759392
G1 X98.554 Y96.815 E.00437
;WIDTH:0.803574
G1 X98.619 Y96.846 E.00455
;WIDTH:0.847756
G1 X98.685 Y96.878 E.00491
;WIDTH:0.891938
G1 X98.751 Y96.909 E.00515
G1 X98.684 Y96.939 E.00518
;WIDTH:0.847756
G1 X98.617 Y96.969 E.00491
;WIDTH:0.803574
G1 X98.551 Y96.999 E.00459
;WIDTH:0.759392
G1 X98.484 Y97.029 E.00437
;WIDTH:0.71521
G1 X98.417 Y97.059 E.0041
;WIDTH:0.671028
G1 X98.35 Y97.088 E.00381
;WIDTH:0.626846
G1 X98.284 Y97.118 E.00352
;WIDTH:0.582664
G1 X98.217 Y97.148 E.00329
;WIDTH:0.538482
G1 X97.936 Y97.205 E.01181
G1 X97.931 Y96.649 E.02291
M204 S1000
;WIPE_START
G1 F8640
G1 X97.93 Y96.559 E-.02078
G1 X97.987 Y96.616 E-.01861
G1 X98.226 Y96.657 E-.05599
;WIPE_END
G1 E-.70462 F2100
G1 Z.6 F720
G1 X98.751 Y116.909 F10800
M73 Q9 S1
G1 Z.2 F720
M73 P9 R1
G1 E.8 F1500
M204 S800
;WIDTH:0.891942
G1 F1200
G1 X98.684 Y116.939 E.00518
;WIDTH:0.847756
G1 X98.617 Y116.969 E.00491
;WIDTH:0.803569
G1 X98.551 Y116.999 E.00459
;WIDTH:0.759383
G1 X98.484 Y117.029 E.00437
;WIDTH:0.715196
G1 X98.417 Y117.059 E.0041
;WIDTH:0.67101
G1 X98.35 Y117.088 E.00381
;WIDTH:0.626823
G1 X98.284 Y117.118 E.00352
;WIDTH:0.582637
G1 X98.217 Y117.148 E.00329
;WIDTH:0.53845
G1 X97.981 Y117.185 E.00984
G1 X97.93 Y117.246 E.00328
G1 X97.936 Y116.597 E.02674
G1 X98.226 Y116.657 E.0122
;WIDTH:0.582637
G1 X98.291 Y116.689 E.00325
;WIDTH:0.626823
G1 X98.357 Y116.72 E.00354
;WIDTH:0.67101
G1 X98.423 Y116.752 E.00383
;WIDTH:0.715196
G1 X98.488 Y116.783 E.00403
;WIDTH:0.759383
G1 X98.554 Y116.815 E.00437
;WIDTH:0.803569
G1 X98.62 Y116.846 E.00461
;WIDTH:0.847756
G1 X98.67 Y116.87 E.00371
M204 S1000
;WIPE_START
G1 F8640
G1 X98.751 Y116.909 E-.02076
G1 X98.684 Y116.939 E-.01695
;WIPE_END
G1 E-.76229 F2100
G1 Z.6 F720
G1 X117.73 Y116.884 F10800
G1 Z.2 F720
M73 Q10 S1
G1 E.8 F1500
M204 S800
;WIDTH:0.811068
G1 F1200
G1 X117.793 Y116.9 E.00415
G1 X117.435 Y116.992 E.02361
;WIDTH:0.819704
G1 X117.174 Y117.174 E.02055
G1 X116.991 Y117.435 E.02059
;WIDTH:0.813455
G1 X116.9 Y117.878 E.02898
G1 X116.809 Y117.435 E.02898
M73 P10 R1
;WIDTH:0.819704
G1 X116.625 Y117.174 E.02063
G1 X116.365 Y116.991 E.02054
;WIDTH:0.813454
G1 X115.921 Y116.9 E.02904
G1 X116.365 Y116.809 E.02904
;WIDTH:0.819704
G1 X116.625 Y116.625 E.02057
G1 X116.808 Y116.364 E.02059
;WIDTH:0.811068
G1 X116.9 Y116.007 E.02355
G1 X116.992 Y116.364 E.02355
;WIDTH:0.819704
G1 X117.174 Y116.625 E.02055
G1 X117.435 Y116.808 E.02059
;WIDTH:0.811068
G1 X117.643 Y116.861 E.01371
M204 S1000
;WIPE_START
G1 F8640
G1 X117.73 Y116.884 E-.02078
G1 X117.793 Y116.9 E-.01501
G1 X117.435 Y116.992 E-.08535
;WIPE_END
G1 E-.67886 F2100
G1 Z.6 F720
G1 X116.9 Y135.094 F10800
G1 Z.2 F720
G1 E.8 F1500
M73 Q11 S1
M204 S800
;WIDTH:0.87919
G1 F1200
G1 X116.935 Y135.163 E.00538
;WIDTH:0.830209
G1 X116.969 Y135.232 E.00504
;WIDTH:0.781228
G1 X117.004 Y135.3 E.0047
;WIDTH:0.732247
G1 X117.039 Y135.369 E.00443
;WIDTH:0.683266
G1 X117.074 Y135.438 E.00412
;WIDTH:0.634285
G1 X117.109 Y135.506 E.00376
;WIDTH:0.585303
G1 X117.144 Y135.575 E.00349
;WIDTH:0.536322
G1 X117.231 Y135.875 E.01282
G1 X116.569 Y135.875 E.02716
G1 X116.656 Y135.575 E.01282
;WIDTH:0.585303
G1 X116.691 Y135.506 E.00349
;WIDTH:0.634285
G1 X116.726 Y135.438 E.00376
;WIDTH:0.683266
G1 X116.76 Y135.369 E.0041
;WIDTH:0.732247
G1 X116.795 Y135.3 E.00443
;WIDTH:0.781228
G1 X116.83 Y135.232 E.0047
;WIDTH:0.830209
G1 X116.859 Y135.175 E.00419
M204 S1000
;WIPE_START
G1 F8640
G1 X116.9 Y135.094 E-.02096
G1 X116.935 Y135.163 E-.01786
;WIPE_END
G1 E-.76118 F2100
G1 Z.6 F720
M73 P11 R1
G1 X97.937 Y135.711 F10800
G1 Z.2 F720
G1 E.8 F1500
M204 S800
;TYPE:External perimeter
;WIDTH:0.679561
G1 F1200
G1 X97.908 Y135.593 E.00643
;WIDTH:0.65
G1 X97.903 Y118.089 E.88358
;WIDTH:0.649853
G1 X97.907 Y117.981 E.00545
M73 P12 R1
M73 Q12 S1
;WIDTH:0.649999
G1 X98.16 Y117.71 E.01871
G1 X99.259 Y117.584 E.05584
G1 X100.288 Y117.575 E.05194
G1 X115.921 Y117.575 E.78914
G1 X116.136 Y117.664 E.01175
M73 P13 R1
M73 Q13 S1
G1 X116.225 Y117.878 E.0117
G1 X116.224 Y134.008 E.81422
G1 X116.182 Y135.018 E.05103
M73 P14 R1
M73 Q14 S1
G1 X116.103 Y135.55 E.02715
G1 X116.019 Y135.792 E.01293
;WIDTH:0.649705
G1 X115.79 Y135.895 E.01267
;WIDTH:0.649999
G1 X98.179 Y135.889 E.88898
;WIDTH:0.677956
G1 X98.072 Y135.859 E.00587
M73 P15 R1
M73 Q15 S1
;WIDTH:0.717767
G1 X97.966 Y135.829 E.00618
G1 X97.958 Y135.798 E.0018
M204 S1000
;WIPE_START
G1 F8640
G1 X97.937 Y135.711 E-.02067
G1 X97.908 Y135.593 E-.02806
;WIPE_END
G1 E-.75127 F2100
G1 Z.6 F720
G1 X137.73 Y116.884 F10800
G1 Z.2 F720
M73 P16 R1
M73 Q16 S1
G1 E.8 F1500
M204 S800
;TYPE:Perimeter
;WIDTH:0.811069
G1 F1200
G1 X137.793 Y116.9 E.00415
G1 X137.435 Y116.992 E.02361
;WIDTH:0.819705
G1 X137.174 Y117.174 E.02055
G1 X136.991 Y117.435 E.02059
;WIDTH:0.813455
G1 X136.9 Y117.878 E.02898
G1 X136.809 Y117.435 E.02898
;WIDTH:0.819705
G1 X136.625 Y117.174 E.02063
G1 X136.365 Y116.991 E.02054
;WIDTH:0.813455
G1 X135.921 Y116.9 E.02904
G1 X136.365 Y116.809 E.02904
;WIDTH:0.819705
G1 X136.625 Y116.625 E.02057
G1 X136.808 Y116.364 E.02059
;WIDTH:0.811069
G1 X136.9 Y116.007 E.02355
G1 X136.992 Y116.364 E.02355
;WIDTH:0.819705
G1 X137.174 Y116.625 E.02055
G1 X137.435 Y116.808 E.02059
;WIDTH:0.811069
G1 X137.643 Y116.861 E.01371
M204 S1000
;WIPE_START
G1 F8640
G1 X137.73 Y116.884 E-.02078
G1 X137.793 Y116.9 E-.01501
G1 X137.435 Y116.992 E-.08535
;WIPE_END
G1 E-.67886 F2100
G1 Z.6 F720
G1 X155.875 Y117.231 F10800
G1 Z.2 F720
M73 Q17 S1
G1 E.8 F1500
M73 P17 R1
M204 S800
;WIDTH:0.536322
G1 F1200
G1 X155.575 Y117.144 E.01282
;WIDTH:0.584452
G1 X155.5 Y117.109 E.00373
;WIDTH:0.632582
G1 X155.424 Y117.074 E.0041
;WIDTH:0.680712
G1 X155.349 Y117.039 E.00439
;WIDTH:0.728842
G1 X155.274 Y117.004 E.00472
;WIDTH:0.776972
G1 X155.199 Y116.969 E.00505
;WIDTH:0.825102
G1 X155.124 Y116.935 E.00536
;WIDTH:0.873232
G1 X155.048 Y116.9 E.00578
G1 X155.101 Y116.878 E.00396
;WIDTH:0.840082
G1 X155.153 Y116.856 E.00374
;WIDTH:0.806932
G1 X155.273 Y116.808 E.00821
;WIDTH:0.761831
G1 X155.393 Y116.76 E.00773
;WIDTH:0.716729
G1 X155.514 Y116.713 E.00727
;WIDTH:0.671627
G1 X155.634 Y116.665 E.00676
;WIDTH:0.626526
G1 X155.755 Y116.617 E.00632
;WIDTH:0.581424
G1 X155.875 Y116.569 E.00579
;WIDTH:0.536322
G1 X155.875 Y117.141 E.02347
M204 S1000
;WIPE_START
G1 F8640
G1 X155.875 Y117.231 E-.02078
G1 X155.575 Y117.144 E-.07212
;WIPE_END
G1 E-.7071 F2100
G1 Z.6 F720
G1 X155.048 Y96.9 F10800
G1 Z.2 F720
G1 E.8 F1500
M73 Q18 S1
M204 S800
;WIDTH:0.873232
G1 F1200
G1 X155.101 Y96.878 E.00396
;WIDTH:0.840082
G1 X155.153 Y96.856 E.00374
;WIDTH:0.806932
G1 X155.273 Y96.808 E.00821
;WIDTH:0.761831
G1 X155.393 Y96.76 E.00773
;WIDTH:0.716729
G1 X155.514 Y96.713 E.00727
;WIDTH:0.671627
G1 X155.634 Y96.665 E.00676
;WIDTH:0.626525
G1 X155.755 Y96.617 E.00632
;WIDTH:0.581423
G1 X155.875 Y96.569 E.00579
;WIDTH:0.536321
G1 X155.875 Y97.231 E.02716
G1 X155.575 Y97.144 E.01282
;WIDTH:0.584451
G1 X155.5 Y97.109 E.00373
;WIDTH:0.632582
G1 X155.424 Y97.074 E.0041
;WIDTH:0.680712
G1 X155.349 Y97.039 E.00439
;WIDTH:0.728842
G1 X155.274 Y97.004 E.00472
;WIDTH:0.776972
G1 X155.199 Y96.969 E.00505
;WIDTH:0.825102
G1 X155.13 Y96.938 E.00492
M204 S1000
;WIPE_START
G1 F8640
G1 X155.048 Y96.9 E-.02087
G1 X155.101 Y96.878 E-.01325
;WIPE_END
G1 E-.76588 F2100
G1 Z.6 F720
M73 P18 R1
G1 X136.884 Y96.069 F10800
G1 Z.2 F720
G1 E.8 F1500
M204 S800
;WIDTH:0.811068
G1 F1200
G1 X136.9 Y96.007 E.00409
G1 X136.992 Y96.364 E.02355
;WIDTH:0.819704
G1 X137.174 Y96.625 E.02055
G1 X137.435 Y96.808 E.02059
;WIDTH:0.811067
G1 X137.793 Y96.9 E.02361
G1 X137.435 Y96.992 E.02361
;WIDTH:0.819704
G1 X137.174 Y97.174 E.02055
G1 X136.991 Y97.435 E.02059
;WIDTH:0.813454
G1 X136.9 Y97.878 E.02898
G1 X136.809 Y97.435 E.02898
;WIDTH:0.819704
G1 X136.625 Y97.174 E.02063
G1 X136.365 Y96.991 E.02054
M73 Q19 S1
;WIDTH:0.813454
G1 X135.921 Y96.9 E.02904
G1 X136.365 Y96.809 E.02904
;WIDTH:0.819704
G1 X136.625 Y96.625 E.02057
G1 X136.808 Y96.364 E.02059
;WIDTH:0.811068
G1 X136.861 Y96.156 E.01371
M204 S1000
;WIPE_START
G1 F8640
G1 X136.884 Y96.069 E-.02078
G1 X136.9 Y96.007 E-.01478
G1 X136.992 Y96.364 E-.08513
;WIPE_END
G1 E-.67931 F2100
G1 Z.6 F720
G1 X137.237 Y77.93 F10800
G1 Z.2 F720
M73 P19 R1
G1 E.8 F1500
M204 S800
;WIDTH:0.536467
G1 F1200
G1 X137.186 Y77.981 E.00296
G1 X137.144 Y78.224 E.01012
;WIDTH:0.584577
G1 X137.109 Y78.299 E.00373
;WIDTH:0.632686
G1 X137.074 Y78.374 E.00406
;WIDTH:0.680795
G1 X137.039 Y78.45 E.00444
;WIDTH:0.728904
G1 X137.004 Y78.525 E.00472
;WIDTH:0.777014
G1 X136.969 Y78.6 E.00505
;WIDTH:0.825123
G1 X136.935 Y78.676 E.00542
;WIDTH:0.873232
G1 X136.9 Y78.751 E.00571
G1 X136.865 Y78.676 E.00571
;WIDTH:0.825123
G1 X136.83 Y78.6 E.00544
;WIDTH:0.777014
G1 X136.795 Y78.525 E.00505
;WIDTH:0.728904
G1 X136.76 Y78.45 E.00472
;WIDTH:0.680795
G1 X136.725 Y78.374 E.00444
;WIDTH:0.632686
G1 X136.691 Y78.299 E.00404
;WIDTH:0.584577
G1 X136.656 Y78.224 E.00373
;WIDTH:0.536467
G1 X136.595 Y77.935 E.01212
G1 X137.147 Y77.931 E.02265
M204 S1000
;WIPE_START
G1 F8640
G1 X137.237 Y77.93 E-.02078
G1 X137.186 Y77.981 E-.01665
G1 X137.144 Y78.224 E-.05694
;WIPE_END
G1 E-.70563 F2100
G1 Z.6 F720
G1 X155.714 Y77.938 F10800
M73 Q20 S1
G1 Z.2 F720
G1 E.8 F1500
M73 P20 R1
M204 S800
;TYPE:External perimeter
;WIDTH:0.722875
G1 F1200
G1 X155.836 Y77.969 E.00712
G1 X155.864 Y78.088 E.00691
;WIDTH:0.683491
G1 X155.893 Y78.207 E.00652
;WIDTH:0.65
G1 X155.896 Y95.395 E.86763
;WIDTH:0.653191
G1 X155.885 Y95.878 E.02452
M73 P21 R1
M73 Q21 S1
G1 X155.776 Y96.032 E.00957
;WIDTH:0.650948
G1 X155.493 Y96.112 E.01487
;WIDTH:0.649999
G1 X155.018 Y96.182 E.02424
G1 X154.008 Y96.224 E.05103
G1 X137.878 Y96.225 E.81422
G1 X137.743 Y96.193 E.007
M73 P22 R1
M73 Q22 S1
G1 X137.607 Y96.057 E.00971
G1 X137.575 Y95.921 E.00705
G1 X137.575 Y79.791 E.81422
G1 X137.618 Y78.782 E.05098
M73 Q23 S1
G1 X137.71 Y78.162 E.03164
M73 P23 R1
G1 X137.929 Y77.915 E.01666
;WIDTH:0.649851
G1 X138.089 Y77.903 E.0081
;WIDTH:0.65
G1 X155.593 Y77.908 E.88358
;WIDTH:0.682115
G1 X155.627 Y77.916 E.00186
M73 P24 R1
M73 Q24 S1
M204 S1000
;WIPE_START
G1 F8640
G1 X155.714 Y77.938 E-.02072
G1 X155.836 Y77.969 E-.02907
G1 X155.864 Y78.088 E-.02823
;WIPE_END
G1 E-.72198 F2100
G1 Z.6 F720
G1 X137.878 Y116.225 F10800
G1 Z.2 F720
G1 E.8 F1500
M204 S800
;WIDTH:0.649999
G1 F1200
M73 Q25 S1
G1 X137.743 Y116.193 E.007
G1 X137.607 Y116.057 E.00971
G1 X137.575 Y115.921 E.00705
G1 X137.575 Y97.878 E.91079
G1 X137.664 Y97.664 E.0117
M73 P25 R1
M73 Q26 S1
G1 X137.878 Y97.575 E.0117
G1 X154.008 Y97.575 E.81422
G1 X155.018 Y97.618 E.05103
M73 P26 R1
G1 X155.55 Y97.696 E.02714
G1 X155.792 Y97.781 E.01295
;WIDTH:0.649706
G1 X155.895 Y98.01 E.01267
;WIDTH:0.65
G1 X155.896 Y115.395 E.87758
M73 Q27 S1
;WIDTH:0.653191
G1 X155.885 Y115.878 E.02452
M73 P27 R1
G1 X155.776 Y116.032 E.00957
;WIDTH:0.650948
G1 X155.493 Y116.112 E.01487
;WIDTH:0.649999
G1 X155.05 Y116.179 E.02262
G1 X154.008 Y116.224 E.05265
M73 Q28 S1
G1 X137.968 Y116.225 E.80968
M204 S1000
;WIPE_START
G1 F8640
M73 P28 R1
G1 X137.878 Y116.225 E-.02078
G1 X137.743 Y116.193 E-.03204
G1 X137.607 Y116.057 E-.04441
G1 X137.575 Y115.921 E-.03226
G1 X137.575 Y113.017 E-.67051
;WIPE_END
G1 Z.6 F720
M73 Q29 S1
G1 X137.793 Y96.9 F10800
G1 Z.2 F720
M73 P29 R1
G1 E.8 F1500
M204 S800
;TYPE:Perimeter
;WIDTH:0.793314
G1 F1200
G1 X137.878 Y96.9 E.0053
;WIDTH:0.78671
G1 X154.009 Y96.9 E.99764
;WIDTH:0.829971
G1 X154.528 Y96.9 E.03397
M73 P30 R1
M73 Q30 S1
;WIDTH:0.873232
G1 X155.048 Y96.9 E.0359
M204 S1000
;WIPE_START
G1 F8640
G1 X154.528 Y96.9 E-.12007
;WIPE_END
G1 E-.67993 F2100
G1 Z.6 F720
G1 X117.878 Y116.225 F10800
G1 Z.2 F720
M73 Q31 S1
G1 E.8 F1500
M204 S800
;TYPE:External perimeter
;WIDTH:0.649999
G1 F1200
G1 X117.743 Y116.193 E.007
G1 X117.664 Y116.136 E.00492
G1 X117.575 Y115.921 E.01175
G1 X117.575 Y97.878 E.91079
G1 X117.664 Y97.664 E.0117
M73 P31 R1
M73 Q32 S1
G1 X117.878 Y97.575 E.0117
G1 X135.921 Y97.575 E.91079
G1 X136.136 Y97.664 E.01175
M73 P32 R1
M73 Q33 S1
G1 X136.225 Y97.878 E.0117
G1 X136.225 Y115.921 E.91079
G1 X136.193 Y116.057 E.00705
M73 P33 R1
M73 Q34 S1
G1 X136.057 Y116.193 E.00971
G1 X135.921 Y116.225 E.00705
G1 X117.968 Y116.225 E.90625
M204 S1000
;WIPE_START
G1 F8640
M73 P34 R1
M73 Q35 S1
G1 X117.878 Y116.225 E-.02078
G1 X117.743 Y116.193 E-.03204
G1 X117.664 Y116.136 E-.02249
G1 X117.575 Y115.921 E-.05373
G1 X117.575 Y113.015 E-.67096
;WIPE_END
G1 Z.6 F720
M73 P35 R1
G1 X136.9 Y116.007 F10800
G1 Z.2 F720
G1 E.8 F1500
M204 S800
;TYPE:Perimeter
;WIDTH:0.793316
G1 F1200
G1 X136.9 Y115.921 E.00537
;WIDTH:0.785842
G1 X136.9 Y97.878 E1.11459
M204 S1000
;WIPE_START
G1 F8640
M73 P36 R0
M73 Q36 S1
G1 X136.9 Y101.343 E-.8
;WIPE_END
G1 Z.6 F720
G1 X116.9 Y78.751 F10800
G1 Z.2 F720
M73 P37 R0
M73 Q37 S1
G1 E.8 F1500
M204 S800
;WIDTH:0.873232
G1 F1200
M73 Q37 S0
G1 X116.865 Y78.676 E.00571
;WIDTH:0.825127
G1 X116.83 Y78.6 E.00544
;WIDTH:0.777021
G1 X116.795 Y78.525 E.00505
;WIDTH:0.728916
G1 X116.76 Y78.45 E.00472
;WIDTH:0.680811
G1 X116.725 Y78.374 E.00444
;WIDTH:0.632705
G1 X116.691 Y78.299 E.00404
;WIDTH:0.5846
G1 X116.656 Y78.223 E.00377
;WIDTH:0.536494
G1 X116.615 Y77.988 E.00979
G1 X116.544 Y77.928 E.00382
G1 X117.205 Y77.935 E.02713
G1 X117.144 Y78.223 E.01208
;WIDTH:0.5846
G1 X117.109 Y78.299 E.00377
;WIDTH:0.632705
G1 X117.074 Y78.374 E.00406
;WIDTH:0.680811
